X: 42081
T: Waltzing Matilda
R: barndance
M: 4/4
K: Gmajor
GA|BDGB ADFA|GABG EG G2|DGBd dB B2|dBcB A2GA|
BDGB ADFA|GABG EG G2|DGBd dB B2|ADFA G4||
Bded dB B2|g3f ed d2|Bded dB B2|cABG A2 GA|
BDGB ADFA|GABG EG G2|DGBd dB B2|ADFA G4||

